MonoIcons/scalable/status/network-cellular-offline-rtl-symbolic.svg

<?xml version="1.0" encoding="UTF-8"?>
<svg height="16px" viewBox="0 0 16 16" width="16px" xmlns="http://www.w3.org/2000/svg">
    <path d="m 2 1 c -0.554688 0 -1 0.445312 -1 1 v 12 c 0 0.554688 0.445312 1 1 1 h 1 c 0.554688 0 1 -0.445312 1 -1 v -12 c 0 -0.554688 -0.445312 -1 -1 -1 z m 4 3 c -0.554688 0 -1 0.445312 -1 1 v 9 c 0 0.554688 0.445312 1 1 1 h 1 c 0.554688 0 1 -0.445312 1 -1 v -9 c 0 -0.554688 -0.445312 -1 -1 -1 z m 4 3 c -0.554688 0 -1 0.445312 -1 1 v 6 c 0 0.148438 0.035156 0.289062 0.09375 0.417969 c 0.089844 -0.308594 0.253906 -0.59375 0.492188 -0.832031 l 0.585937 -0.585938 l -0.585937 -0.585938 c -0.773438 -0.773437 -0.773438 -2.054687 0 -2.828124 c 0.375 -0.375 0.882812 -0.585938 1.414062 -0.585938 c 0.355469 0 0.699219 0.097656 1 0.269531 v -1.269531 c 0 -0.554688 -0.445312 -1 -1 -1 z m 6 5.828125 l -0.171875 0.171875 l 0.171875 0.171875 z m 0 0" fill="#2e3434" fill-opacity="0.34902"/>
    <path d="m 11 10 c -0.265625 0 -0.519531 0.105469 -0.707031 0.292969 c -0.390625 0.390625 -0.390625 1.023437 0 1.414062 l 1.292969 1.292969 l -1.292969 1.292969 c -0.390625 0.390625 -0.390625 1.023437 0 1.414062 s 1.023437 0.390625 1.414062 0 l 1.292969 -1.292969 l 1.292969 1.292969 c 0.390625 0.390625 1.023437 0.390625 1.414062 0 s 0.390625 -1.023437 0 -1.414062 l -1.292969 -1.292969 l 1.292969 -1.292969 c 0.390625 -0.390625 0.390625 -1.023437 0 -1.414062 c -0.1875 -0.1875 -0.441406 -0.292969 -0.707031 -0.292969 s -0.519531 0.105469 -0.707031 0.292969 l -1.292969 1.292969 l -1.292969 -1.292969 c -0.1875 -0.1875 -0.441406 -0.292969 -0.707031 -0.292969 z m 0 0" fill="#2e3436"/>
</svg>

<svg width="16" height="16" viewBox="0 0 16 16" fill="none" xmlns="http://www.w3.org/2000/svg">
<g clip-path="url(#clip0_231_1318)">
<path d="M2 1C1.44531 1 1 1.44531 1 2V14C1 14.5547 1.44531 15 2 15H3C3.55469 15 4 14.5547 4 14V2C4 1.44531 3.55469 1 3 1H2ZM6 4C5.44531 4 5 4.44531 5 5V14C5 14.5547 5.44531 15 6 15H7C7.55469 15 8 14.5547 8 14V5C8 4.44531 7.55469 4 7 4H6ZM10 7C9.44531 7 9 7.44531 9 8V14C9 14.1484 9.03516 14.2891 9.09375 14.418C9.18359 14.1094 9.34766 13.8242 9.58594 13.5859L10.1719 13L9.58594 12.4141C8.8125 11.6406 8.8125 10.3594 9.58594 9.58594C9.96094 9.21094 10.4688 9 11 9C11.3555 9 11.6992 9.09766 12 9.26953V8C12 7.44531 11.5547 7 11 7H10ZM16 12.8281L15.8281 13L16 13.1719V12.8281Z" fill="#2E3436" fill-opacity="0.5"/>
<path d="M11 10C10.7344 10 10.4805 10.1055 10.293 10.293C9.90234 10.6836 9.90234 11.3164 10.293 11.707L11.5859 13L10.293 14.293C9.90234 14.6836 9.90234 15.3164 10.293 15.707C10.6836 16.0977 11.3164 16.0977 11.707 15.707L13 14.4141L14.293 15.707C14.6836 16.0977 15.3164 16.0977 15.707 15.707C16.0977 15.3164 16.0977 14.6836 15.707 14.293L14.4141 13L15.707 11.707C16.0977 11.3164 16.0977 10.6836 15.707 10.293C15.5195 10.1055 15.2656 10 15 10C14.7344 10 14.4805 10.1055 14.293 10.293L13 11.5859L11.707 10.293C11.5195 10.1055 11.2656 10 11 10V10Z" fill="#2E3436"/>
</g>
<defs>
<clipPath id="clip0_231_1318">
<rect width="16" height="16" fill="white"/>
</clipPath>
</defs>
</svg>
